X:1
T:Partition sans titre
C:Compositeur / Arrangeur
L:1/8
M:4/4
I:linebreak $
K:D
V:1 treble nm="Violon" snm="Vln."
V:1
"D" FA (3AAA BAFA | dfed"G" BddA |"D" FA (3AAA BAFA | dfed"G" (3BdB AG |"D" FA (3AAA BAFA | %5
 dfed"G" Bdef | gage"D" fgfe |1 dfed"G" (3BdB AG :|2 dfed"G" BdAd |:"D" fa (3aaa bfaf | %10
"G" gfed Bdde |"D" fa (3aaa bfaf |"G" gfed (3BdB A2 |"D" fa (3aaa bfaf |"G" gfed Bdef | %15
 Pg3 e"D" Pf3 e |1 dfed"G" BdAd :|2 dfed"G" (3BdB AG |] %18
